!!!OTL: "Die Schaeferstunde" ES WAR EINMAL EIN JUNGER KNAB
!!!ARE: Europa, Mitteleuropa, Deutschland, Wasgau
!!!SCT: Z0171
!!!YEM: Copyright 1995, estate of Helmut Schaffrath.
**kern
*ICvox
*Ivox
*M3/4
*k[f#]
*G:
{8d
8g
8b
=1
4dd
8b
8dd
8ee
16dd
16cc
=2
4cc
8.b}
{16cc
8b
8b
=3
4b
8a
8b
8dd
16b
16a
=4
4a
8b}
{8d
8g
8b
=5
4dd
8b
8dd
8ee
16dd
16cc
=6
4cc
8.b}
{16dd
8cc
8b
=7
4b
4dd
8b
8a
=8
4a
8g}
==
!!!AGN: Erzaehlung, lustige Romanze
!!!ONB: ESAC (Essen Associative Code) Database: ZUCCAL
!!!AMT: simple triple
!!!AIN: vox
!!!EED: Helmut Schaffrath
!!!EEV: 1.0
*-
